cssgg/data.svg

<svg
  width="24"
  height="24"
  viewBox="0 0 24 24"
  fill="none"
  xmlns="http://www.w3.org/2000/svg"
>
  <path
    fill-rule="evenodd"
    clip-rule="evenodd"
    d="M12 8.88916C13.6569 8.88916 15 10.2323 15 11.8892C15 13.1954 14.1652 14.3066 13 14.7185V19.8892H11V14.7185C9.83481 14.3066 9 13.1954 9 11.8892C9 10.2323 10.3431 8.88916 12 8.88916ZM12 10.8892C12.5523 10.8892 13 11.3369 13 11.8892C13 12.4414 12.5523 12.8892 12 12.8892C11.4477 12.8892 11 12.4414 11 11.8892C11 11.3369 11.4477 10.8892 12 10.8892Z"
    fill="currentColor"
  />
  <path
    d="M7.05019 6.93938C5.78348 8.20612 5 9.9561 5 11.8891C5 14.0666 5.99426 16.0119 7.55355 17.2957L8.97712 15.8721C7.7757 14.9589 7 13.5146 7 11.8891C7 10.5084 7.55962 9.25841 8.46441 8.35359L7.05019 6.93938Z"
    fill="currentColor"
  />
  <path
    d="M15.5355 8.35348C16.4403 9.25831 17 10.5083 17 11.8891C17 13.5146 16.2243 14.959 15.0228 15.8722L16.4463 17.2958C18.0057 16.012 19 14.0666 19 11.8891C19 9.95604 18.2165 8.20602 16.9497 6.93927L15.5355 8.35348Z"
    fill="currentColor"
  />
  <path
    d="M1 11.8891C1 8.85152 2.23119 6.10155 4.22176 4.11095L5.63598 5.52516C4.00733 7.15383 3 9.40381 3 11.8891C3 14.3743 4.00733 16.6243 5.63597 18.2529L4.22175 19.6672C2.23119 17.6766 1 14.9266 1 11.8891Z"
    fill="currentColor"
  />
  <path
    d="M19.7781 19.6673C21.7688 17.6767 23 14.9266 23 11.8891C23 8.85147 21.7688 6.10145 19.7781 4.11084L18.3639 5.52505C19.9926 7.15374 21 9.40376 21 11.8891C21 14.3744 19.9926 16.6244 18.3639 18.2531L19.7781 19.6673Z"
    fill="currentColor"
  />
</svg>

<svg viewBox="0 0 24 24" xmlns="http://www.w3.org/2000/svg"><path fill-rule="evenodd" d="M12 8.88c1.65 0 3 1.34 3 3 0 1.3-.84 2.41-2 2.82v5.17h-2v-5.18c-1.17-.42-2-1.53-2-2.83 0-1.66 1.34-3.01 3-3.01Zm0 2c.55 0 1 .44 1 1 0 .55-.45 1-1 1 -.56 0-1-.45-1-1 0-.56.44-1 1-1Z"/><g><path d="M7.05 6.93c-1.27 1.26-2.06 3.01-2.06 4.94 0 2.17.99 4.12 2.55 5.4l1.42-1.43c-1.21-.92-1.98-2.36-1.98-3.99 0-1.39.55-2.64 1.46-3.54L7.02 6.89Z"/><path d="M15.53 8.35c.9.9 1.46 2.15 1.46 3.53 0 1.62-.78 3.06-1.98 3.98l1.42 1.42c1.55-1.29 2.55-3.23 2.55-5.41 0-1.94-.79-3.69-2.06-4.95L15.5 8.33Z"/><path d="M1 11.88C1 8.84 2.23 6.09 4.22 4.1l1.41 1.41C4 7.13 2.99 9.38 2.99 11.87c0 2.48 1 4.73 2.63 6.36L4.2 19.64c-2-2-3.23-4.75-3.23-7.78Z"/><path d="M19.77 19.66c1.99-2 3.22-4.75 3.22-7.78 0-3.04-1.24-5.79-3.23-7.78l-1.42 1.41c1.62 1.62 2.63 3.87 2.63 6.36 0 2.48-1.01 4.73-2.64 6.36l1.41 1.41Z"/></g></svg>
